X: 021929
T: Berwick Jockey
S: "Roche Collection of Traditional Irish Music" [II/26/261]
L: 1/8
M: 9/8
R: slip jig
K: D
A2A AGF AGF | A2A AGF Bcd |
ABA AGF AGF | B2E E2F G2B :|
A2D D2d AGF | A2D D2E F2B |
A2D D2d AGF | G2E E2F G2B |
ABc ded cBA | d2F F2G A2B |
A2D D2d AGF | B2E E2F G2B |]
